X:1
T:Title
%%score { ( 1 3 ) | 2 }
L:1/8
Q:1/4=106
M:4/4
K:Bb
V:1 treble nm="Grand Piano"
V:3 treble 
V:2 bass 
V:1
 [DF]>[DF] [DF]>[DF] [EG]2 [DF]2 | [FB]2 c2 d3 [Ge] | d2 c2 c3 d | [Ec]2 [DB]2 [DB]2 z2 | %4
w: L.~H.~Parthemore * * * * *||||
 [DF]>[DF] [DF]>[DF] [EG]2 [DF]2 | [FB]2 c2 d3 [Ge] | d>c B>d c2 A2 | [DB]6 z2 | [Fc]6 z2 | %9
w: |||||
 [Ac]4 z4 | [Fd]6 z2 | [Fd]4 [Fd]2 z2 | [Ge]3 [Ge] [FB]2 [Ec]2 | [Fd]4 z4 | %14
w: |||||
 [Fc]3 [FA] [=EB]2 [B,EG]2 | [A,F]6 z2 | [DF]>[DF] [DF]>[DF] [EG]2 [DF]2 | [FB]2 c2 d3 [Ge] | %18
w: ||||
 d2 c2 c3 d | [Ec]2 [DB]2 [DB]2 z2 | [DF]>[DF] [DF]>[DF] [EG]2 [DF]2 | [FB]2 c2 d3 [Ge] | %22
w: ||||
 d>c B>d c2 A2 |[M:8/4] [DB]8 z8 |] %24
w: ||
V:2
 [B,,B,]>[B,,B,] [B,,B,]>[B,,B,] [B,,B,]2 [B,,B,]2 | %1
 [D,B,]2[K:treble] [F,A,F]2 [B,F]3[K:bass] [E,B,] | [F,B,F]2 [F,A,E]2 [F,A,E]3 [F,F] | %3
 [B,,F,]2 [B,,F,]2 [B,,F,]2 z2 | [B,,B,]>[B,,B,] [B,,B,]>[B,,B,] [B,,B,]2 [B,,B,]2 | %5
 [D,B,]2[K:treble] [F,A,F]2 [B,F]3[K:bass] [E,B,] | %6
 [F,B,F]>[F,A,E] [F,B,D]>[F,B,F] [F,A,E]2 [F,CE]2 | [B,,B,]6 z2 | [F,A,]2 F,2 F,>F, F,F, | %9
 F,2 F,2 [F,A,F]2 z2 | [B,,B,]2 B,,2 B,,>[B,,B,] [B,,B,][B,,B,] | [B,,B,]2 [B,,B,]2 [B,,B,]2 z2 | %12
 [E,B,]3 [E,B,] [D,B,]2 [F,A,]2 | [B,,B,]2 B,,2 B,,2 [B,,B,]2 | [C,A,]3 [C,C] [C,G,]2 C,2 | %15
 F,2 E,2 D,2 C,2 | [B,,B,]>[B,,B,] [B,,B,]>[B,,B,] [B,,B,]2 [B,,B,]2 | %17
 [D,B,]2[K:treble] [F,A,F]2 [B,F]3[K:bass] [E,B,] | [F,B,F]2 [F,A,E]2 [F,A,E]3 [F,F] | %19
 [B,,F,]2 [B,,F,]2 [B,,F,]2 z2 | [B,,B,]>[B,,B,] [B,,B,]>[B,,B,] [B,,B,]2 [B,,B,]2 | %21
 [D,B,]2[K:treble] [F,A,F]2 [B,F]3[K:bass] [E,B,] | %22
 [F,B,F]>[F,A,E] [F,B,D]>[F,B,F] [F,A,E]2 [F,CE]2 |[M:8/4] [B,,B,]8 z8 |] %24
V:3
 x8 | x8 | x8 | x8 | x8 | x8 | x8 | x8 | z2 A,2 A,>[CGB] [CFA][CGB] | C2 C2 c2 z2 | %10
 z2 B,2 B,>[Ec] [DB][Ec] | x8 | x8 | z2 B,2 [DFB]2 [Fd]2 | x8 | x8 | x8 | x8 | x8 | x8 | x8 | x8 | %22
 x8 |[M:8/4] x16 |] %24

